X: 3
T: Maud Millar - 3rd setting
R: reel
S: https://thesession.org/tunes/1177
M: 4/4
L: 1/8
K: Em
gf |edBA GEDE | G2(3BAG DGBd | eBdB A2GA | Beed ef :|
ge | dega bgg2 | agef gfge | dega bgg2 | aged ea ||
ge | dega bgg2 | agef gfga | bgaf gfed | Beed [Be][df]gf |]

%%sep 1 1 500

